X: 3406
T: New Scotia Quadrille
P: The Royal Wedding
C:A. Bland (24 Country Dances for the year 1792)
B:RSCDS 34-6
Z:Anselm Lingnau <anselm@strathspey.org>
R:Reel (2x48) AABAAB
M:2/4
L:1/16
K:G
|:"G"g2G2 GABc|d2d2 d4|"Am"c2c2 cBAG|"D7"A2D2 D4|
  "G"g2G2 GABc|d2d2 "Am"[c4E2]|"G"B2G2 "D7"BAGF|"G"G4 [G4B,4]:|
|:"G"Bcdc BcdB|"C"cded cdec|"D"defe defd|"G"g4 G4|
  "G"g2G2 GABc|d2d2 "Am"[c4E2]|"G"B2G2 "D7"BAGF|"G"G4 G,4:|
%%center Book34/3406-New_Scotia_Quadrille-AL.abc

%%sep 1 1 500
%%sep 1 1 500

